images/icons/tile.svg

<svg height="32pt" viewBox="0 0 32 32" width="32pt" xmlns="http://www.w3.org/2000/svg"><g fill="#fff"><path d="m5.332031 14.933594c.21875 0 .414063-.128906.496094-.328125s.039063-.429688-.117187-.585938c-.152344-.148437-.382813-.195312-.582032-.109375-.0625.023438-.125.0625-.175781.109375-.203125.210938-.203125.546875 0 .757813.050781.050781.113281.085937.175781.113281.066406.027344.132813.042969.203125.042969zm0 0"/><path d="m12.265625 0h-9.597656c-1.472657 0-2.667969 1.195312-2.667969 2.667969v9.597656c0 1.472656 1.195312 2.664063 2.667969 2.667969h1.066406c.292969 0 .53125-.238282.53125-.535156 0-.292969-.238281-.53125-.53125-.53125h-1.066406c-.886719 0-1.601563-.71875-1.601563-1.601563v-9.597656c0-.886719.714844-1.601563 1.601563-1.601563h9.597656c.882813 0 1.601563.714844 1.601563 1.601563v9.597656c0 .882813-.71875 1.601563-1.601563 1.601563h-5.332031c-.292969 0-.535156.238281-.535156.53125 0 .296874.242187.535156.535156.535156h5.332031c1.472656-.003906 2.664063-1.195313 2.667969-2.667969v-9.597656c-.003906-1.472657-1.195313-2.667969-2.667969-2.667969zm0 0"/><path d="m29.332031 0h-9.597656c-1.472656 0-2.664063 1.195312-2.667969 2.667969v9.597656c.003906 1.472656 1.195313 2.664063 2.667969 2.667969h9.597656c1.472657-.003906 2.667969-1.195313 2.667969-2.667969v-9.597656c0-1.472657-1.195312-2.667969-2.667969-2.667969zm1.601563 12.265625c0 .882813-.714844 1.601563-1.601563 1.601563h-9.597656c-.882813 0-1.601563-.71875-1.601563-1.601563v-9.597656c0-.886719.71875-1.601563 1.601563-1.601563h9.597656c.886719 0 1.601563.714844 1.601563 1.601563zm0 0"/><path d="m29.332031 17.066406h-9.597656c-1.472656.003906-2.664063 1.195313-2.667969 2.667969v9.597656c.003906 1.472657 1.195313 2.667969 2.667969 2.667969h9.597656c1.472657 0 2.667969-1.195312 2.667969-2.667969v-9.597656c0-1.472656-1.195312-2.664063-2.667969-2.667969zm1.601563 12.265625c0 .886719-.714844 1.601563-1.601563 1.601563h-9.597656c-.882813 0-1.601563-.714844-1.601563-1.601563v-9.597656c0-.882813.71875-1.601563 1.601563-1.601563h9.597656c.886719 0 1.601563.71875 1.601563 1.601563zm0 0"/><path d="m12.265625 17.066406h-9.597656c-1.472657.003906-2.667969 1.195313-2.667969 2.667969v9.597656c0 1.472657 1.195312 2.667969 2.667969 2.667969h9.597656c1.472656 0 2.664063-1.195312 2.667969-2.667969v-9.597656c-.003906-1.472656-1.195313-2.664063-2.667969-2.667969zm1.601563 12.265625c0 .886719-.71875 1.601563-1.601563 1.601563h-9.597656c-.886719 0-1.601563-.714844-1.601563-1.601563v-9.597656c0-.882813.714844-1.601563 1.601563-1.601563h9.597656c.882813 0 1.601563.71875 1.601563 1.601563zm0 0"/></g></svg>

<?xml version="1.0" encoding="UTF-8"?>
<svg xmlns="http://www.w3.org/2000/svg" xmlns:xlink="http://www.w3.org/1999/xlink" width="32pt" height="32pt" viewBox="0 0 32 32" version="1.1">
<g id="surface1">
<path style=" stroke:none;fill-rule:nonzero;fill:rgb(255%,255%,255%);fill-opacity:1;" d="M 5.332031 14.933594 C 5.550781 14.933594 5.746094 14.804688 5.828125 14.605469 C 5.910156 14.40625 5.867188 14.175781 5.710938 14.019531 C 5.558594 13.871094 5.328125 13.824219 5.128906 13.910156 C 5.066406 13.933594 5.003906 13.972656 4.953125 14.019531 C 4.75 14.230469 4.75 14.566406 4.953125 14.777344 C 5.003906 14.828125 5.066406 14.863281 5.128906 14.890625 C 5.195312 14.917969 5.261719 14.933594 5.332031 14.933594 Z M 5.332031 14.933594 "/>
<path style=" stroke:none;fill-rule:nonzero;fill:rgb(255%,255%,255%);fill-opacity:1;" d="M 12.265625 0 L 2.667969 0 C 1.195312 0 0 1.195312 0 2.667969 L 0 12.265625 C 0 13.738281 1.195312 14.929688 2.667969 14.933594 L 3.734375 14.933594 C 4.027344 14.933594 4.265625 14.695312 4.265625 14.398438 C 4.265625 14.105469 4.027344 13.867188 3.734375 13.867188 L 2.667969 13.867188 C 1.78125 13.867188 1.066406 13.148438 1.066406 12.265625 L 1.066406 2.667969 C 1.066406 1.78125 1.78125 1.066406 2.667969 1.066406 L 12.265625 1.066406 C 13.148438 1.066406 13.867188 1.78125 13.867188 2.667969 L 13.867188 12.265625 C 13.867188 13.148438 13.148438 13.867188 12.265625 13.867188 L 6.933594 13.867188 C 6.640625 13.867188 6.398438 14.105469 6.398438 14.398438 C 6.398438 14.695312 6.640625 14.933594 6.933594 14.933594 L 12.265625 14.933594 C 13.738281 14.929688 14.929688 13.738281 14.933594 12.265625 L 14.933594 2.667969 C 14.929688 1.195312 13.738281 0 12.265625 0 Z M 12.265625 0 "/>
<path style=" stroke:none;fill-rule:nonzero;fill:rgb(255%,255%,255%);fill-opacity:1;" d="M 29.332031 0 L 19.734375 0 C 18.261719 0 17.070312 1.195312 17.066406 2.667969 L 17.066406 12.265625 C 17.070312 13.738281 18.261719 14.929688 19.734375 14.933594 L 29.332031 14.933594 C 30.804688 14.929688 32 13.738281 32 12.265625 L 32 2.667969 C 32 1.195312 30.804688 0 29.332031 0 Z M 30.933594 12.265625 C 30.933594 13.148438 30.21875 13.867188 29.332031 13.867188 L 19.734375 13.867188 C 18.851562 13.867188 18.132812 13.148438 18.132812 12.265625 L 18.132812 2.667969 C 18.132812 1.78125 18.851562 1.066406 19.734375 1.066406 L 29.332031 1.066406 C 30.21875 1.066406 30.933594 1.78125 30.933594 2.667969 Z M 30.933594 12.265625 "/>
<path style=" stroke:none;fill-rule:nonzero;fill:rgb(255%,255%,255%);fill-opacity:1;" d="M 29.332031 17.066406 L 19.734375 17.066406 C 18.261719 17.070312 17.070312 18.261719 17.066406 19.734375 L 17.066406 29.332031 C 17.070312 30.804688 18.261719 32 19.734375 32 L 29.332031 32 C 30.804688 32 32 30.804688 32 29.332031 L 32 19.734375 C 32 18.261719 30.804688 17.070312 29.332031 17.066406 Z M 30.933594 29.332031 C 30.933594 30.21875 30.21875 30.933594 29.332031 30.933594 L 19.734375 30.933594 C 18.851562 30.933594 18.132812 30.21875 18.132812 29.332031 L 18.132812 19.734375 C 18.132812 18.851562 18.851562 18.132812 19.734375 18.132812 L 29.332031 18.132812 C 30.21875 18.132812 30.933594 18.851562 30.933594 19.734375 Z M 30.933594 29.332031 "/>
<path style=" stroke:none;fill-rule:nonzero;fill:rgb(255%,255%,255%);fill-opacity:1;" d="M 12.265625 17.066406 L 2.667969 17.066406 C 1.195312 17.070312 0 18.261719 0 19.734375 L 0 29.332031 C 0 30.804688 1.195312 32 2.667969 32 L 12.265625 32 C 13.738281 32 14.929688 30.804688 14.933594 29.332031 L 14.933594 19.734375 C 14.929688 18.261719 13.738281 17.070312 12.265625 17.066406 Z M 13.867188 29.332031 C 13.867188 30.21875 13.148438 30.933594 12.265625 30.933594 L 2.667969 30.933594 C 1.78125 30.933594 1.066406 30.21875 1.066406 29.332031 L 1.066406 19.734375 C 1.066406 18.851562 1.78125 18.132812 2.667969 18.132812 L 12.265625 18.132812 C 13.148438 18.132812 13.867188 18.851562 13.867188 19.734375 Z M 13.867188 29.332031 "/>
</g>
</svg>
